X:1
T:Mortiferum vulnus
T:Daniel Friderici
T:Source : Bicinia sacra---Rostock---J.Richelius---1642. Editor : André Vierendeels (12/07/17).
T:Notes : Original clefs : C1, C1 Editorial accidentals above the staff
T:Mortiferum vulnus
T:©
T:©
T:©
C:Daniel Friderici
Z:©
%%score [ 1 2 ]
L:1/8
Q:1/4=120
M:2/2
K:C
V:1 treble nm="Soprano 1" snm="S 1"
V:2 treble nm="Soprano 2" snm="S 2"
V:1
 E8 | A6 A2 | ^G8 | c8 | B8 | A8 | E2 E4 E2 | c8 | B8 | z4 e4 | d2 B2 c2 A2 | B2 G2 A4 | E4 z2 e2 | %13
w: Mor-|ti- fe-|rum|vul-|nus|Chri-|stus Sa- ma-|ri-|ta|li-|ga- * * *||vit, li-|
 e2 B2 c2 AB | c2 d2 e2 c2 | d4 G4 | z2 d2 c2 A2 | d2 B2 c2 G2 | A2 E2 F4 | E8 :: G2 F2 E2 D2 | %21
w: ga- * * * *||* vit,|li- ga- *|||vit:|Vi- * * *|
 C2 D2 E2 F2 | G2 F2 E2 D2 | C4 C4 | c2 d2 e2 d2 | c2 B2 c2 G2 | A2 G2 A2 B2 | c4 c2 c2 | %28
w: ||* cit,|vi- * * *|||* cit, vi-|
 c2 B4 A2 | ^G8 | ^G8 | z4 e4- | e2 E2 E4 | A2 ^GA B2 B2 | c2 BA ^G4 | A2 e4 E2 | E4 ^G2 A2 | %37
w: cit et ae-|ter-|nae,|tri-|* sti- a|ju- * * * ra|ne- * * *|cis, tri- sti-|a ju- ra|
 B2 c2 B4 | A2 e4 E2 | E4 ^G2 A2 | B2 c2 B2 A2 | ^G2 A2 B2 c2 | B2 A4 ^G2 | A8 :| %44
w: ne- * *|cis, tri- sti-|a ju- ra|ne- * * *|||cis.|
V:2
 z8 | z8 | E8 | A6 A2 | ^G8 | c8 | B8 | A8 | E2 E4 E2 | c8 | B4 e4 | d2 B2 c2 A2 | B2 G2 A4 | %13
w: ||Mor-|ti- fe-|rum|vul-|nus|Chri-|stus Sa- ma-|ri-|ta, li-|ga- * * *||
 E4 z2 e2 | e2 B2 c2 A2 | B2 G2 d4 | G4 z2 c2 | B2 G2 A2 E2 | F2 C2 D4 | E8 :: E2 D2 E2 F2 | %21
w: vit, li-|ga- * * *||vit, li-|ga- * * *||vit:|Vi- * * *|
 G2 F2 E2 D2 | C4 C4 | c2 d2 e2 d2 | c2 B2 c2 G2 | A2 G2 A2 B2 | c4 c4 | z4 e4 | e2 d4 c2 | B8 | %30
w: |* cit,|vi- * * *|||* cit,|vi-|cit et ae-|ter-|
 B4 e4- | e2 E2 E4 | A2 ^GA B2 B2 | c2 BA ^G4 | A4 z2 e2- | e2 E2 E4 | ^G2 A2 B2 c2 | B2 A4 ^G2 | %38
w: nae tri-|* sti- a|ju- * * * ra|ne- * * *|cis, tri-|* sti- a|ju- ra ne- *||
 A6 e2- | e2 E2 E4 | ^G2 A2 B2 c2 | B2 A2 ^G2 A2 | B2 c2 B4 | A8 :| %44
w: cis, tri-|* sti- a|ne- * * *|||cis.|

